X:20
T: STERBEN IST EIN HARTE BUSS
N: Z0289
O: Europa, Mitteleuropa, Deutschland
R: Lyrisches Lied, Romanze, Tod]
M: 4/4
L: 1/4
K: G
 | dc_BA | GDD2
 | dc_BA | GDD2
 | _BBdd | _BBd2
 | _e2d2 | c2_B2 | AAG2
